X:1
T:Request, 88.86
T:Request, 88.86
T:A. M. Lloyd, early 20th Century
T:Public Domain Courtesy of the Cyber Hymnal™
C:A. M. Lloyd, early 20th Century
Z:Public Domain
Z:Courtesy of the Cyber Hymnal™
%%score ( 1 2 ) 3
L:1/8
Q:1/4=108
M:4/4
K:Eb
V:1 treble 
V:2 treble 
V:3 bass 
V:1
 [EG]2 | [EB]2 [EG]2 [CF]2 [B,E]2 | [B,E]3 [B,D] [B,D]2 E2 | [DF]2 [EG]2 [DA]2 [DB]2 | %4
 [EA]3 [EG] [EG]2 [DB]2 | [Ee]2 [EB]2 [EA]2 [EG]2 | [EG]3 [EF] [EF]2 [=EG]2 | %7
 [FA]2 [EA]2 [DG]2 [DF]2 | E6 |] %9
V:2
 x2 | x8 | x6 E2 | x8 | x8 | x8 | x8 | x8 | E6 |] %9
V:3
 [E,B,]2 | [E,G,]2 [E,B,]2 [E,A,]2 [E,G,]2 | [B,,A,]3 [B,,A,] [B,,A,]2 [B,,G,]2 | %3
 [B,,A,]2 [B,,G,]2 [B,,F,]2 [B,,B,]2 | [E,B,]3 [E,B,] [E,B,]2 [A,B,]2 | %5
 [G,B,]2 [E,_D]2 [E,C]2 [E,B,]2 | [A,,C]3 [A,,C] [A,,C]2 [G,,C]2 | %7
 [F,,C]2 [F,,C]2 [B,,B,]2 [B,,A,]2 | [E,,E,G,]6 |] %9

